signal-cellular-3.svg

<svg fill="currentColor" viewBox="0 0 24 24"><path d="M21 4h-5v16h5zm-7 5H9v11h5zm-7 5H2v6h5z"/></svg>

<svg  viewBox="0 0 24 24" fill="currentColor"><path  d="M21,4H16V20H21V4M14,9H9V20H14V9M7,14H2V20H7V14Z"/></svg>
